img/balloon_icon-icons.com_59931.svg

<svg width="800" height="800" fill="none" xmlns="http://www.w3.org/2000/svg"><path d="M162.341 262.461c.19-8.17-6.294-14.943-14.464-15.125-7.979-.198-14.943 6.286-15.133 14.464-.785 34.958 4.7 72.998 16.314 113.045 1.875 6.476 7.79 10.689 14.208 10.689 1.362 0 2.75-.19 4.13-.596 7.847-2.271 12.366-10.481 10.094-18.338-10.771-37.147-15.868-72.188-15.149-104.139ZM217.62 103.176c-6.757 4.668-13.737 10.565-21.354 18.033-5.832 5.725-5.923 15.1-.198 20.932a14.743 14.743 0 0 0 10.564 4.436c3.743 0 7.493-1.403 10.368-4.237 6.394-6.27 12.093-11.11 17.437-14.795 6.725-4.642 8.418-13.86 3.775-20.593-4.65-6.725-13.868-8.418-20.592-3.776ZM357.782 247.337c-8.178.174-14.653 6.947-14.48 15.116.231 10.4-.141 21.098-1.091 31.795-.718 8.137 5.295 15.332 13.44 16.05.446.041.883.059 1.32.059 7.583 0 14.043-5.791 14.729-13.489 1.049-11.779 1.454-23.576 1.198-35.058-.181-8.179-7.128-14.679-15.116-14.473Z" fill="#FBD42C"/><path d="M708.527 144.824c-17.281-33.769-51.645-55.064-90.201-55.064-51.678 0-94.467 38.825-100.721 88.834-17.279.396-32.678 8.517-42.896 21.022-33.305-88.883-119.099-152.33-219.463-152.33-129.186 0-234.283 105.104-234.283 234.299 0 79.573 33.133 122.511 71.503 172.238 10.259 13.3 20.865 27.054 31.579 42.386 18.983 27.185 75.922 135.198 76.492 136.289l.892 1.692a14.7 14.7 0 0 0-2.593 8.36v46.97c-.017.445-.133.858-.133 1.304v27.633c0 18.892 15.364 34.256 34.248 34.256h42.417c18.884 0 34.248-15.364 34.248-34.256v-27.633c0-.768-.174-1.485-.223-2.246v-46.027c0-2.247-.537-4.354-1.437-6.262l1.999-3.791c.578-1.091 57.509-109.096 76.5-136.281 10.714-15.34 21.328-29.094 31.588-42.394 37.883-49.107 70.602-91.666 71.42-169.339 8.617 5.221 18.678 8.285 29.473 8.285 15.977 0 30.961-6.749 41.576-18.074 16.875 11.747 36.883 18.074 57.814 18.074 16.496 0 32.57-3.973 47.047-11.564a73.858 73.858 0 0 0 39.65 11.564c40.807 0 74.014-33.198 74.014-74.014 0-39.633-31.322-72.097-70.51-73.931Zm-403.71 434.443a5297.537 5297.537 0 0 0-16.876 31.53h-65.39c-3.8-7.162-9.896-18.603-17.033-31.818l99.299.288Zm-25.029 77.756c-1.462-.19-2.908-.447-4.419-.447h-42.417c-1.544 0-3.023.257-4.511.456v-14.481c0-.735-.115-1.445-.222-2.147h51.785c-.108.702-.215 1.412-.215 2.147v14.472h-.001Zm-4.42 66.083h-42.417a4.648 4.648 0 0 1-4.642-4.649v-2.636c.033-.438.131-.868.131-1.313v-24.336c.331-2.237 2.181-3.989 4.511-3.989h42.417c2.164 0 3.899 1.52 4.419 3.52v24.806c0 .776.107 1.512.223 2.254v1.695a4.647 4.647 0 0 1-4.642 4.648ZM394.6 435.742c-10.467 13.571-21.296 27.605-32.415 43.516-9.12 13.052-25.682 42.17-41.252 70.454l-28.887-.084c8.599-26.829 19.23-53.503 29.671-79.391 15.835-39.253 32.208-79.846 41.872-122.47 1.809-7.971-3.188-15.901-11.167-17.702-7.972-1.817-15.902 3.188-17.703 11.16-9.135 40.303-25.062 79.771-40.459 117.942-11.788 29.226-23.906 59.427-33.273 90.369l-16.339-.049c-9.368-31.034-21.271-60.5-32.844-88.999-5.105-12.571-10.202-25.136-15.092-37.84-2.933-7.634-11.516-11.44-19.132-8.501-7.624 2.941-11.432 11.499-8.5 19.132 4.956 12.87 10.119 25.606 15.298 38.345 10.21 25.153 20.602 51.1 29.159 77.772l-24.178-.065c-15.513-28.17-31.968-57.081-41.046-70.074-11.11-15.91-21.94-29.944-32.415-43.516-37.932-49.158-65.332-84.679-65.332-154.157 0-112.871 91.815-204.694 204.678-204.694S459.93 168.713 459.93 281.584c.002 69.472-27.399 104.991-65.33 154.158Zm310.423-172.578c-10.639 0-20.947-3.857-29.025-10.871a14.81 14.81 0 0 0-17.91-1.147 71.544 71.544 0 0 1-39.762 12.019c-19 0-36.924-7.36-50.48-20.734a14.796 14.796 0 0 0-23.888 4.469c-4.451 9.879-14.273 16.265-25.021 16.265-15.156 0-27.49-12.333-27.49-27.491 0-15.157 12.334-27.49 27.49-27.49 2.52 0 5.172.479 8.359 1.512a14.847 14.847 0 0 0 13.549-2.338 14.804 14.804 0 0 0 5.783-12.474l-.109-1.768c-.041-.611-.09-1.231-.09-1.851 0-39.642 32.248-71.898 71.898-71.898 29.82 0 56.102 17.999 66.939 45.854 2.412 6.187 8.672 9.971 15.266 9.359a44.578 44.578 0 0 1 4.492-.231c24.484 0 44.41 19.924 44.41 44.408 0 24.491-19.926 44.407-44.411 44.407Z" fill="#FBD42C"/></svg>

<svg width="800" height="800" viewBox="0 0 800 800" fill="none" xmlns="http://www.w3.org/2000/svg">
<path d="M162.341 262.461C162.531 254.291 156.047 247.518 147.877 247.336C139.898 247.138 132.934 253.622 132.744 261.8C131.959 296.758 137.444 334.798 149.058 374.845C150.933 381.321 156.848 385.534 163.266 385.534C164.628 385.534 166.016 385.344 167.396 384.938C175.243 382.667 179.762 374.457 177.49 366.6C166.719 329.453 161.622 294.412 162.341 262.461Z" fill="#FBD42C"/>
<path d="M217.62 103.176C210.863 107.844 203.883 113.741 196.266 121.209C190.434 126.934 190.343 136.309 196.068 142.141C198.967 145.099 202.8 146.577 206.632 146.577C210.375 146.577 214.125 145.174 217 142.34C223.394 136.07 229.093 131.23 234.437 127.545C241.162 122.903 242.855 113.685 238.212 106.952C233.562 100.227 224.344 98.5337 217.62 103.176Z" fill="#FBD42C"/>
<path d="M357.782 247.337C349.604 247.511 343.129 254.284 343.302 262.453C343.533 272.853 343.161 283.551 342.211 294.248C341.493 302.385 347.506 309.58 355.651 310.298C356.097 310.339 356.534 310.357 356.971 310.357C364.554 310.357 371.014 304.566 371.7 296.868C372.749 285.089 373.154 273.292 372.898 261.81C372.717 253.631 365.77 247.131 357.782 247.337Z" fill="#FBD42C"/>
<path d="M708.527 144.824C691.246 111.055 656.882 89.7602 618.326 89.7602C566.648 89.7602 523.859 128.585 517.605 178.594C500.326 178.99 484.927 187.111 474.709 199.616C441.404 110.733 355.61 47.2852 255.246 47.2852C126.06 47.2852 20.9629 152.39 20.9629 281.585C20.9629 361.158 54.0959 404.096 92.4659 453.823C102.725 467.123 113.331 480.877 124.045 496.209C143.028 523.394 199.967 631.407 200.537 632.498L201.429 634.19C199.794 636.569 198.836 639.444 198.836 642.55V689.52C198.819 689.965 198.703 690.378 198.703 690.824V718.457C198.703 737.349 214.067 752.713 232.951 752.713H275.368C294.252 752.713 309.616 737.349 309.616 718.457V690.824C309.616 690.056 309.442 689.339 309.393 688.578V642.551C309.393 640.304 308.856 638.197 307.956 636.289L309.955 632.498C310.533 631.407 367.464 523.402 386.455 496.217C397.169 480.877 407.783 467.123 418.043 453.823C455.926 404.716 488.645 362.157 489.463 284.484C498.08 289.705 508.141 292.769 518.936 292.769C534.913 292.769 549.897 286.02 560.512 274.695C577.387 286.442 597.395 292.769 618.326 292.769C634.822 292.769 650.896 288.796 665.373 281.205C677.17 288.714 690.916 292.769 705.023 292.769C745.83 292.769 779.037 259.571 779.037 218.755C779.037 179.122 747.715 146.658 708.527 144.824ZM304.817 579.267C297.746 592.369 291.716 603.686 287.941 610.797H222.551C218.751 603.635 212.655 592.194 205.518 578.979L304.817 579.267ZM279.788 657.023C278.326 656.833 276.88 656.576 275.369 656.576H232.952C231.408 656.576 229.929 656.833 228.441 657.032V642.551C228.441 641.816 228.326 641.106 228.219 640.404H280.004C279.896 641.106 279.789 641.816 279.789 642.551V657.023H279.788ZM275.368 723.106H232.951C230.39 723.106 228.309 721.024 228.309 718.457V715.821C228.342 715.383 228.44 714.953 228.44 714.508V690.172C228.771 687.935 230.621 686.183 232.951 686.183H275.368C277.532 686.183 279.267 687.703 279.787 689.703V714.509C279.787 715.285 279.894 716.021 280.01 716.763V718.458C280.011 721.024 277.929 723.106 275.368 723.106ZM394.6 435.742C384.133 449.313 373.304 463.347 362.185 479.258C353.065 492.31 336.503 521.428 320.933 549.712L292.046 549.628C300.645 522.799 311.276 496.125 321.717 470.237C337.552 430.984 353.925 390.391 363.589 347.767C365.398 339.796 360.401 331.866 352.422 330.065C344.45 328.248 336.52 333.253 334.719 341.225C325.584 381.528 309.657 420.996 294.26 459.167C282.472 488.393 270.354 518.594 260.987 549.536L244.648 549.487C235.28 518.453 223.377 488.987 211.804 460.488C206.699 447.917 201.602 435.352 196.712 422.648C193.779 415.014 185.196 411.208 177.58 414.147C169.956 417.088 166.148 425.646 169.08 433.279C174.036 446.149 179.199 458.885 184.378 471.624C194.588 496.777 204.98 522.724 213.537 549.396L189.359 549.331C173.846 521.161 157.391 492.25 148.313 479.257C137.203 463.347 126.373 449.313 115.898 435.741C77.9659 386.583 50.5659 351.062 50.5659 281.584C50.5659 168.713 142.381 76.8902 255.244 76.8902C368.107 76.8902 459.93 168.713 459.93 281.584C459.932 351.056 432.531 386.575 394.6 435.742ZM705.023 263.164C694.384 263.164 684.076 259.307 675.998 252.293C673.221 249.89 669.768 248.667 666.283 248.667C663.441 248.667 660.582 249.484 658.088 251.146C646.272 259.009 632.525 263.165 618.326 263.165C599.326 263.165 581.402 255.805 567.846 242.431C564.403 239.028 559.512 237.533 554.739 238.417C549.971 239.309 545.94 242.473 543.958 246.9C539.507 256.779 529.685 263.165 518.937 263.165C503.781 263.165 491.447 250.832 491.447 235.674C491.447 220.517 503.781 208.184 518.937 208.184C521.457 208.184 524.109 208.663 527.296 209.696C531.915 211.182 536.987 210.307 540.845 207.358C544.702 204.401 546.866 199.742 546.628 194.884L546.519 193.116C546.478 192.505 546.429 191.885 546.429 191.265C546.429 151.623 578.677 119.367 618.327 119.367C648.147 119.367 674.429 137.366 685.266 165.221C687.678 171.408 693.938 175.192 700.532 174.58C702.001 174.431 703.505 174.349 705.024 174.349C729.508 174.349 749.434 194.273 749.434 218.757C749.434 243.248 729.508 263.164 705.023 263.164Z" fill="#FBD42C"/>
</svg>
